build/images/diler.svg

<?xml version="1.0" encoding="UTF-8"?>
<svg width="25px" height="16px" viewBox="0 0 25 16" version="1.1" xmlns="http://www.w3.org/2000/svg" xmlns:xlink="http://www.w3.org/1999/xlink">
    <!-- Generator: sketchtool 63.1 (101010) - https://sketch.com -->
    <title>FE79109F-64BB-40F6-AB4D-ADFFAA907C20</title>
    <desc>Created with sketchtool.</desc>
    <g id="Page-1" stroke="none" stroke-width="1" fill="none" fill-rule="evenodd">
        <g id="Kupa-shop-main-1" transform="translate(-1145.000000, -42.000000)" fill="#333333" fill-rule="nonzero">
            <g id="header" transform="translate(0.000000, 20.000000)">
                <g id="diler" transform="translate(1145.191667, 22.000000)">
                    <path d="M23.8114027,1.10381287 C23.6779514,1.01024561 23.5068671,0.987321637 23.3534262,1.04388304 L19.2730239,2.5234152 C18.7671381,2.70666667 18.364344,3.07607018 18.1390158,3.56336842 C18.0967843,3.65473684 18.0690523,3.74966082 18.0412734,3.84444444 C17.3406068,3.64584795 16.0384706,3.23106433 14.7444053,2.56631579 C12.7889486,1.56173099 11.2950347,2.05791813 10.0137326,3.03232749 C9.36449453,3.04505263 8.46965713,3.12159064 7.59002305,3.19887719 C7.02890791,3.24823392 6.49862173,3.29366082 6.06861177,3.31981287 C6.05805391,3.06231579 5.99761602,2.80678363 5.886125,2.56538012 C5.66079678,2.07803509 5.25804956,1.70863158 4.75211685,1.5254269 L0.671620752,0.0458011696 C0.518649072,-0.010245614 0.346579395,0.0126783626 0.213644189,0.105730994 C0.0796766602,0.199345029 0,0.351859649 0,0.514619883 L0,10.4951111 C0,10.7709474 0.223873584,10.994152 0.500536475,10.994152 L1.96249526,10.994152 C2.58428291,10.994152 3.16275986,10.7017544 3.53669585,10.229614 C3.7358875,10.3806316 3.97182051,10.5574737 4.21924985,10.7426901 C4.80335767,11.1808187 5.44269482,11.6588538 5.72325239,11.8932865 C7.58701992,13.4488421 9.82763271,15.128655 10.2738783,15.4210526 C10.6907965,15.6939415 11.4415778,15.9844211 12.0125,15.9844211 C12.2358574,15.9844211 12.7984741,15.9844211 13.193432,15.6515556 C13.60059,15.8109006 14.0395155,15.8031345 14.447659,15.6237661 C14.854817,15.4449123 15.1842692,15.1076959 15.3758592,14.6978246 C15.7668755,14.777731 16.2160773,14.7192515 16.6232354,14.5155608 C17.0049607,14.3250058 17.2860344,14.0364912 17.4365661,13.6992749 C17.7982549,13.7323977 18.184438,13.6149708 18.5299851,13.3512982 C19.0237176,12.9750175 19.2497966,12.4193216 19.1858395,11.8711111 L20.4554575,11.170807 C20.8272819,11.6733099 21.4182406,11.9921404 22.0624578,11.9921404 L23.5244166,11.9921404 C23.8010795,11.9921404 24.0249531,11.7689357 24.0249531,11.4930994 L24.0249531,1.51270175 C24.0249531,1.34989474 23.9453233,1.19738012 23.8114027,1.10381287 Z M2.89998643,9.34844444 C2.75433486,9.73585965 2.3774896,9.99611696 1.96249526,9.99611696 L1.00102603,9.99611696 L1.00102603,1.22708772 L4.40985444,2.46297076 C4.66305542,2.55508772 4.86445249,2.73978947 4.97683506,2.9834386 C5.08973379,3.22708772 5.09954087,3.50002339 5.00517705,3.75097076 L2.89998643,9.34844444 Z M17.9224623,12.5585029 C17.7528327,12.6881404 17.5153042,12.7602807 17.4097256,12.6550175 C17.4043294,12.6496374 17.395977,12.650152 17.3904399,12.6450058 C17.3808675,12.6361637 17.3761282,12.6242339 17.365758,12.616 C17.0079638,12.3343158 15.4047174,10.6988538 14.4139677,9.66863158 C14.2228469,9.46933333 13.9056418,9.4619883 13.7066848,9.65352047 C13.5067893,9.84407018 13.4999384,10.1598596 13.6915284,10.3586901 C13.9240829,10.6007018 15.7909005,12.5391813 16.5380686,13.2171228 C16.4822762,13.4362573 16.2785329,13.5715556 16.1750659,13.6232982 C15.8544354,13.7836257 15.5201031,13.7568187 15.3949572,13.6408421 C15.3912502,13.6373801 15.3857132,13.6375673 15.3818655,13.6341988 C15.3757654,13.6287719 15.3730438,13.6211462 15.3665683,13.616 C14.7663187,13.1379181 13.2603923,11.5424094 12.9196784,11.1730058 C12.7324523,10.9697778 12.4162326,10.9570994 12.2123955,11.1432982 C12.0090746,11.3299649 11.9953728,11.6457544 12.1825989,11.8484678 C12.1990222,11.8661988 13.6748705,13.4534269 14.5037799,14.1906901 C14.4223201,14.4240468 14.2563505,14.6173099 14.0434102,14.7110175 C13.8862623,14.7806316 13.6404753,14.8163275 13.3596362,14.6094035 C12.640857,14.0017778 11.1983716,12.4708772 10.9146701,12.1681404 C10.7265056,11.9663626 10.4087843,11.9561637 10.2073873,12.1442807 C10.0055209,12.3323977 9.99477539,12.6481871 10.1834561,12.8494503 C10.5198061,13.2083743 11.5139813,14.2589474 12.2697364,14.9702924 C12.1853205,14.980538 12.0966813,14.986386 12.0125,14.986386 C11.681077,14.986386 11.1116563,14.7753918 10.8237787,14.5867602 C10.4728354,14.3567251 8.26933931,12.7173801 6.36648423,11.128655 C6.07860654,10.8879064 5.42167295,10.3952281 4.82043794,9.94493567 C4.49821201,9.70376608 4.20132495,9.48140351 3.98251914,9.31359064 L5.85656299,4.33038596 C6.34302231,4.30919298 6.99155654,4.25328655 7.67791138,4.19293567 C8.06611221,4.15883041 8.45473535,4.12556725 8.82609053,4.09674854 C8.25530908,4.68093567 7.40669165,5.72725146 7.51855806,6.70802339 C7.56989272,7.15443275 7.81478818,7.52626901 8.22781172,7.78357895 C9.04555327,8.29380117 10.5593629,7.86591813 11.2886061,6.97169591 C11.759299,6.90395322 12.0775364,6.78409357 12.4245381,6.61253801 C13.011086,7.16224561 13.7975293,7.80846784 14.6236233,8.48729825 C16.061651,9.6685848 17.6917378,11.0077661 18.122874,11.7587368 C18.3628424,12.1764211 18.0300117,12.4766316 17.9224623,12.5585029 Z M18.7811214,10.9536374 C18.11424,10.0641871 16.6686107,8.87415205 15.2600043,7.7168655 C14.3210585,6.94540351 13.4343858,6.21684211 12.8668891,5.65108772 C12.7104919,5.49609357 12.4704766,5.46100585 12.2769158,5.56383626 C11.7670884,5.83625731 11.5373962,5.94881871 10.9615939,6.00631579 C10.8081061,6.02189474 10.6702908,6.10671345 10.5881741,6.23681871 C10.1956563,6.85768421 9.10467729,7.15298246 8.75861406,6.93759064 C8.56209707,6.81478363 8.52399492,6.6900117 8.51324937,6.59499415 C8.4648709,6.17052632 8.89596011,5.43564912 9.61107925,4.72219883 C11.3819845,2.9565848 12.6479425,2.61108772 14.2858656,3.45319298 C15.8420475,4.2531462 17.3779113,4.70545029 18.0226447,4.87630409 C18.0412734,4.95106433 18.0547875,5.0265731 18.0822849,5.09988304 L20.0257291,10.2671813 L18.7811214,10.9536374 Z M23.023974,10.994152 L22.0625047,10.994152 C21.6475104,10.994152 21.2706651,10.7338947 21.1250136,10.3464795 L19.019776,4.74952047 C18.9254591,4.49805848 18.9352193,4.22516959 19.048118,3.98147368 C19.1605475,3.73782456 19.3619446,3.55312281 19.6150986,3.46100585 L23.0239271,2.22512281 L23.0239271,10.994152 L23.023974,10.994152 Z" id="Shape"></path>
                </g>
            </g>
        </g>
    </g>
</svg>

<svg width="25" height="16" xmlns="http://www.w3.org/2000/svg"><g id="Page-1" stroke="none" stroke-width="1" fill="none" fill-rule="evenodd"><g id="Kupa-shop-main-1" transform="translate(-1145 -42)" fill="#333" fill-rule="nonzero"><g id="header" transform="translate(0 20)"><g id="diler" transform="translate(1145.192 22)"><path d="M23.811 1.104a.498.498 0 00-.458-.06l-4.08 1.48a1.985 1.985 0 00-1.134 1.04c-.042.09-.07.186-.098.28-.7-.198-2.003-.613-3.297-1.278-1.955-1.004-3.449-.508-4.73.466-.65.013-1.544.09-2.424.167-.561.05-1.091.095-1.521.12a1.99 1.99 0 00-.183-.754 1.985 1.985 0 00-1.134-1.04L.672.045A.5.5 0 000 .516v9.98a.5.5 0 00.5.5h1.462c.622 0 1.2-.293 1.575-.765l.682.513c.584.438 1.224.916 1.504 1.15 1.864 1.556 4.105 3.236 4.55 3.528.418.273 1.169.563 1.74.563.223 0 .785 0 1.18-.332.408.159.847.151 1.255-.028a1.88 1.88 0 00.928-.926c.39.08.84.021 1.247-.182a1.71 1.71 0 00.814-.817c.361.033.747-.084 1.093-.348.494-.376.72-.932.656-1.48l1.27-.7c.371.502.962.821 1.606.821h1.462a.5.5 0 00.501-.499v-9.98a.499.499 0 00-.214-.41zM2.9 9.348a1.006 1.006 0 01-.938.648h-.961V1.227L4.41 2.463a.993.993 0 01.567.52.987.987 0 01.028.768L2.9 9.348zm15.022 3.21c-.17.13-.407.202-.512.097-.006-.005-.014-.005-.02-.01-.01-.009-.014-.02-.024-.029-.358-.282-1.961-1.917-2.952-2.947a.5.5 0 00-.722.69c.232.242 2.099 2.18 2.846 2.858-.056.22-.26.355-.363.406-.32.16-.655.134-.78.018-.004-.004-.01-.003-.013-.007-.006-.005-.009-.013-.015-.018-.6-.478-2.107-2.074-2.447-2.443a.502.502 0 00-.708-.03.498.498 0 00-.03.705c.017.018 1.493 1.605 2.322 2.343a.878.878 0 01-.46.52c-.158.07-.404.105-.684-.102-.72-.607-2.162-2.138-2.445-2.44a.501.501 0 00-.708-.025.498.498 0 00-.024.705c.337.36 1.331 1.41 2.087 2.121a2.17 2.17 0 01-.258.016c-.33 0-.9-.21-1.188-.4-.351-.23-2.555-1.869-4.458-3.457A48.342 48.342 0 004.82 9.945c-.322-.241-.619-.464-.837-.631L5.857 4.33a46.013 46.013 0 001.82-.137c.39-.034.778-.067 1.15-.096-.572.584-1.42 1.63-1.308 2.611.05.446.296.818.709 1.076.818.51 2.331.082 3.06-.812.471-.068.79-.188 1.137-.36.586.55 1.373 1.196 2.199 1.875 1.438 1.182 3.068 2.52 3.499 3.272.24.417-.093.718-.2.8zm.86-1.604c-.668-.89-2.113-2.08-3.522-3.237-.939-.772-1.826-1.5-2.393-2.066a.504.504 0 00-.59-.087c-.51.272-.74.385-1.315.442a.501.501 0 00-.374.23c-.392.622-1.483.917-1.83.702-.196-.123-.234-.248-.245-.343-.048-.424.383-1.16 1.098-1.873 1.771-1.765 3.037-2.11 4.675-1.269 1.556.8 3.092 1.252 3.737 1.423.018.075.032.15.06.224l1.943 5.167-1.245.687zm4.242.04h-.961c-.415 0-.792-.26-.938-.648L19.02 4.75a.988.988 0 01.028-.769.994.994 0 01.567-.52l3.409-1.236v8.77z" id="Shape"/></g></g></g></g></svg>
